.local/share/icons/Gruvbox-Plus-Dark/mimetypes/scalable/image-x-exr.svg

<svg width="256" height="256" viewBox="0 0 256 256" fill="none" xmlns="http://www.w3.org/2000/svg">
<g opacity="0.4" filter="url(#filter0_f)">
<path d="M55.0839 15.5636H155.608L216.009 75.7129L216.011 224.609C216.011 233.52 208.749 240.737 199.838 240.737H55.0838C46.1734 240.737 39 233.564 39 224.654V31.6474C39 22.737 46.1734 15.5636 55.0838 15.5636H55.0839Z" fill="#282828"/>
</g>
<path d="M55.0839 15H155.608L216.009 75.1493L216.011 224.045C216.011 232.956 208.749 240.174 199.838 240.174H55.0838C46.1734 240.174 39 233 39 224.09V31.0838C39 22.1734 46.1734 15 55.0838 15H55.0839Z" fill="#ebdbb2"/>
<path opacity="0.2" d="M199.838 240.174C208.749 240.174 216.011 232.956 216.011 224.046L216.01 186.5H39V224.09C39 233 46.1734 240.174 55.0838 240.174H199.838Z" fill="url(#paint0_linear)"/>
<path fill-rule="evenodd" clip-rule="evenodd" d="M155.608 20.3191H55.0839C49.1112 20.3191 44.3191 25.1111 44.3191 31.0838V224.09C44.3191 230.063 49.1111 234.855 55.0838 234.855H199.838C205.83 234.855 210.692 229.999 210.692 224.046V75.1493L155.608 20.3191ZM155.608 15H55.0839C46.1735 15 39 22.1734 39 31.0838V224.09C39 233 46.1734 240.174 55.0838 240.174H199.838C208.749 240.174 216.011 232.956 216.011 224.045L216.009 75.1493L155.608 15Z" fill="url(#paint1_linear)"/>
<path d="M91.6227 226H110.743V221.48H96.4227V213.8H104.703V209.28H96.4227V202.52H109.863V198H91.6227V226ZM132.234 226H137.794L128.954 211.52L137.234 198H131.674L126.194 207L120.714 198H115.154L123.394 211.52L114.554 226H120.114L126.194 216.08L132.234 226ZM142.795 226H147.595V215.04H153.435L158.835 226H164.235L158.635 214.52C162.595 213.32 164.395 209.72 164.395 206.52C164.395 202.12 162.155 198 155.195 198H142.795V226ZM147.595 210.48V202.56H155.275C158.555 202.56 159.435 204.64 159.435 206.52C159.435 208.56 158.395 210.48 155.275 210.48H147.595Z" fill="url(#paint2_linear)"/>
<path d="M109.429 106.427L73 176.248H161.035L134.11 124.641L126.52 139.187L109.429 106.427ZM165.813 80C156.321 80 148.626 87.695 148.626 97.187C148.626 106.679 156.321 114.374 165.813 114.374C175.305 114.374 183 106.679 183 97.187C183 87.695 175.305 80 165.813 80Z" fill="url(#paint3_linear)"/>
<path opacity="0.25" d="M155.608 17V61.2306C155.608 70.141 162.867 77.1605 171.777 77.1605L216.009 77.1493V75.1493L155.608 17Z" fill="#282828"/>
<path d="M155.608 15V59.2306C155.608 68.141 162.867 75.1605 171.777 75.1605L216.009 75.1493L155.608 15Z" fill="url(#paint4_linear)"/>
<defs>
<filter id="filter0_f" x="23.8778" y="0.441412" width="207.255" height="255.418" filterUnits="userSpaceOnUse" color-interpolation-filters="sRGB">
<feFlood flood-opacity="0" result="BackgroundImageFix"/>
<feBlend mode="normal" in="SourceGraphic" in2="BackgroundImageFix" result="shape"/>
<feGaussianBlur stdDeviation="7.5611" result="effect1_foregroundBlur"/>
</filter>
<linearGradient id="paint0_linear" x1="127.506" y1="240.174" x2="127.506" y2="186.5" gradientUnits="userSpaceOnUse">
<stop stop-color="#fb4934"/>
<stop offset="0.1" stop-color="#d65d0e"/>
<stop offset="1" stop-color="#fe8019"/>
</linearGradient>
<linearGradient id="paint1_linear" x1="127.506" y1="240.176" x2="127.506" y2="14.9981" gradientUnits="userSpaceOnUse">
<stop stop-color="#fb4934"/>
<stop offset="0.1" stop-color="#d65d0e"/>
<stop offset="1" stop-color="#fe8019"/>
</linearGradient>
<linearGradient id="paint2_linear" x1="127.5" y1="240" x2="127.5" y2="187" gradientUnits="userSpaceOnUse">
<stop stop-color="#fb4934"/>
<stop offset="0.1" stop-color="#d65d0e"/>
<stop offset="1" stop-color="#fe8019"/>
</linearGradient>
<linearGradient id="paint3_linear" x1="128" y1="176.249" x2="128" y2="79.9992" gradientUnits="userSpaceOnUse">
<stop stop-color="#fb4934"/>
<stop offset="0.1" stop-color="#d65d0e"/>
<stop offset="1" stop-color="#fe8019"/>
</linearGradient>
<linearGradient id="paint4_linear" x1="185.808" y1="75.161" x2="185.808" y2="14.9995" gradientUnits="userSpaceOnUse">
<stop stop-color="#fb4934"/>
<stop offset="0.1" stop-color="#d65d0e"/>
<stop offset="1" stop-color="#fe8019"/>
</linearGradient>
</defs>
</svg>

<svg width="256" height="256" fill="none" version="1.1" viewBox="0 0 256 256" xmlns="http://www.w3.org/2000/svg">
  <path d="m55.08 15h100.5l60.4 60.15 2e-3 148.9c0 8.911-7.262 16.13-16.17 16.13h-144.8c-8.91 0-16.08-7.174-16.08-16.08v-193c0-8.91 7.173-16.08 16.08-16.08h1e-4z" fill="#ebdbb2"/>
  <path d="m199.8 240.2c8.911 0 16.17-7.218 16.17-16.13l-1e-3 -37.55h-177v37.59c0 8.91 7.173 16.08 16.08 16.08h144.8z" fill="url(#paint0_linear)" opacity=".2"/>
  <path d="m155.6 20.32h-100.5c-5.973 0-10.76 4.792-10.76 10.76v193c0 5.973 4.792 10.76 10.76 10.76h144.8c5.992 0 10.85-4.856 10.85-10.81v-148.9l-55.08-54.83zm0-5.319h-100.5c-8.91 0-16.08 7.173-16.08 16.08v193c0 8.91 7.173 16.08 16.08 16.08h144.8c8.911 0 16.17-7.218 16.17-16.13l-2e-3 -148.9-60.4-60.15z" clip-rule="evenodd" fill="url(#paint1_linear)" fill-rule="evenodd"/>
  <path d="m91.62 226h19.12v-4.52h-14.32v-7.68h8.28v-4.52h-8.28v-6.76h13.44v-4.52h-18.24v28zm40.61 0h5.56l-8.84-14.48 8.28-13.52h-5.56l-5.48 9-5.48-9h-5.56l8.24 13.52-8.84 14.48h5.56l6.08-9.92 6.04 9.92zm10.56 0h4.8v-10.96h5.84l5.4 10.96h5.4l-5.6-11.48c3.96-1.2 5.76-4.8 5.76-8 0-4.4-2.24-8.52-9.2-8.52h-12.4v28zm4.8-15.52v-7.92h7.68c3.28 0 4.16 2.08 4.16 3.96 0 2.04-1.04 3.96-4.16 3.96h-7.68z" fill="url(#paint2_linear)"/>
  <path d="m109.4 106.4-36.43 69.82h88.04l-26.92-51.61-7.59 14.55-17.09-32.76zm56.38-26.43c-9.492 0-17.19 7.695-17.19 17.19s7.695 17.19 17.19 17.19 17.19-7.695 17.19-17.19-7.695-17.19-17.19-17.19z" fill="url(#paint3_linear)"/>
  <path d="m155.6 17v44.23c0 8.91 7.259 15.93 16.17 15.93l44.23-0.0112v-2l-60.4-58.15z" fill="#282828" opacity=".25"/>
  <path d="m155.6 15v44.23c0 8.91 7.259 15.93 16.17 15.93l44.23-0.0112-60.4-60.15z" fill="url(#paint4_linear)"/>
  <defs>
    <linearGradient id="paint0_linear" x1="127.5" x2="127.5" y1="240.2" y2="186.5" gradientUnits="userSpaceOnUse">
      <stop stop-color="#fb4934" offset="0"/>
      <stop stop-color="#d65d0e" offset=".1"/>
      <stop stop-color="#fe8019" offset="1"/>
    </linearGradient>
    <linearGradient id="paint1_linear" x1="127.5" x2="127.5" y1="240.2" y2="15" gradientUnits="userSpaceOnUse">
      <stop stop-color="#fb4934" offset="0"/>
      <stop stop-color="#d65d0e" offset=".1"/>
      <stop stop-color="#fe8019" offset="1"/>
    </linearGradient>
    <linearGradient id="paint2_linear" x1="127.5" x2="127.5" y1="240" y2="187" gradientUnits="userSpaceOnUse">
      <stop stop-color="#fb4934" offset="0"/>
      <stop stop-color="#d65d0e" offset=".1"/>
      <stop stop-color="#fe8019" offset="1"/>
    </linearGradient>
    <linearGradient id="paint3_linear" x1="128" x2="128" y1="176.2" y2="80" gradientUnits="userSpaceOnUse">
      <stop stop-color="#fb4934" offset="0"/>
      <stop stop-color="#d65d0e" offset=".1"/>
      <stop stop-color="#fe8019" offset="1"/>
    </linearGradient>
    <linearGradient id="paint4_linear" x1="185.8" x2="185.8" y1="75.16" y2="15" gradientUnits="userSpaceOnUse">
      <stop stop-color="#fb4934" offset="0"/>
      <stop stop-color="#d65d0e" offset=".1"/>
      <stop stop-color="#fe8019" offset="1"/>
    </linearGradient>
  </defs>
</svg>
